X:1
T:Siloam, CM
T:Siloam, CM
T:Isaac Baker Woodbury, 1842
T:Public Domain Courtesy of the Cyber Hymnal™
C:Isaac Baker Woodbury, 1842
Z:Public Domain
Z:Courtesy of the Cyber Hymnal™
%%score ( 1 2 ) ( 3 4 )
L:1/8
Q:1/4=115
M:3/4
K:D
V:1 treble 
V:2 treble 
V:3 bass 
V:4 bass 
V:1
 ([DF]>[EG]) | [FA]4 [DF]2 | [GB]4 [FA]2 | [DF]4 (DF) | [CE]4 [CE]2 | ([DF]2 [FA]2) [DF]2 | %6
 ([CE]2 [EG]2) [CE]2 | [DF]4 [Fd]2 | ([Ac]2 [GB]2) [FA]2 | [DF]4 ([CE][DF]) | x6 | [EG]4 [DF]2 | %12
 [CE]4 ([DF]>[EG]) | [FA]4 [GB]2 | [DF]4 [CE]2 | [DF]4 |] %16
V:2
 x2 | x6 | x6 | x4 D2 | x6 | x6 | x6 | x6 | x6 | x6 | x6 | x6 | x6 | x6 | x6 | x4 |] %16
V:3
 [D,A,]2 | [D,D]4 [D,A,]2 | [D,D]4 [D,D]2 | [D,A,]4 (F,A,) | [A,,A,]4 [A,,A,]2 | (A,2 D2) [D,A,]2 | %6
 [A,,A,]4 [A,,A,]2 | [D,A,]4 [D,A,]2 | [D,D]4 [D,D]2 | [D,A,]4 [D,A,]2 | [C,A,]4 [D,A,]2 | %11
 [A,,A,]4 [D,A,]2 | [D,D]4 [G,D]2 | A,4 [A,,A,]2 | [D,A,]4 x2 | x4 |] %16
V:4
 x2 | x6 | x6 | x4 D,2 | x6 | D,4 x2 | x6 | x6 | x6 | x6 | x6 | x6 | x6 | A,4 x2 | x6 | x4 |] %16

